X: 10491
M: 2/4
L: 1/16
K: Bb
V: 1 staves=3
dc |\
bagf gfed | edcB BAGF | GBAc Bdce | d2B2B2 :|
|: FE |\
e2g2 gfed | edcB BAGF | GBAc Bdce | d2B2B2 :|
V: 2
|: z2 |\
c2e2 edcB | G4 F4 | E4 D2F2 | F2D2D2 :|
V: 3 clef=bass middle=d
z2 |\
b2b2b2b2 | b2b2b2b2 | e2f2g2a2 | a2B2B2 :|
|: z2 |\
b2b2 b2b2 | e2e2e2z2 | c'2c'2 c'2c'2 | f2f2f2z2 |\
a4 b4 | e2=e2f2d2 | e2f2g2a2 | b2B2B2 :|


